static/socials/discord.svg

<svg width="407" height="407" viewBox="0 0 407 407" fill="none" xmlns="http://www.w3.org/2000/svg">
<path d="M344.542 73.6973C318.603 61.8031 290.784 53.04 261.699 48.0211C261.17 47.9242 260.64 48.1663 260.367 48.6504C256.79 55.0089 252.827 63.3039 250.052 69.8238C218.769 65.1439 187.647 65.1439 157.005 69.8238C154.231 63.1591 150.123 55.0089 146.53 48.6504C146.257 48.1824 145.728 47.9403 145.198 48.0211C116.129 53.024 88.3117 61.7871 62.3547 73.6973C62.1301 73.7941 61.9374 73.9556 61.8096 74.1653C9.04545 152.937 -5.40887 229.772 1.68193 305.655C1.71401 306.026 1.92256 306.382 2.21133 306.608C37.0236 332.155 70.7452 347.664 103.841 357.943C104.37 358.105 104.932 357.911 105.269 357.476C113.097 346.793 120.076 335.527 126.059 323.682C126.412 322.988 126.075 322.165 125.354 321.89C114.285 317.694 103.744 312.578 93.6055 306.769C92.8035 306.3 92.7393 305.154 93.4771 304.606C95.6107 303.008 97.7449 301.346 99.7822 299.667C100.151 299.361 100.664 299.296 101.098 299.49C167.705 329.879 239.818 329.879 305.64 299.49C306.073 299.28 306.587 299.345 306.971 299.651C309.008 301.33 311.142 303.008 313.293 304.606C314.029 305.154 313.981 306.3 313.18 306.769C303.041 312.691 292.501 317.694 281.416 321.874C280.694 322.149 280.373 322.988 280.726 323.682C286.838 335.511 293.817 346.775 301.5 357.46C301.821 357.911 302.399 358.105 302.928 357.943C336.185 347.664 369.906 332.155 404.718 306.608C405.023 306.382 405.215 306.042 405.247 305.671C413.734 217.942 391.034 141.737 345.072 74.1813C344.96 73.9556 344.768 73.7941 344.542 73.6973ZM136.006 259.45C115.953 259.45 99.429 241.053 99.429 218.46C99.429 195.866 115.632 177.467 136.006 177.467C156.54 177.467 172.904 196.026 172.583 218.46C172.583 241.053 156.38 259.45 136.006 259.45ZM271.244 259.45C251.192 259.45 234.668 241.053 234.668 218.46C234.668 195.866 250.871 177.467 271.244 177.467C291.779 177.467 308.142 196.026 307.822 218.46C307.822 241.053 291.779 259.45 271.244 259.45Z" fill="#D0D0D0"/>
</svg>

<svg xmlns="http://www.w3.org/2000/svg" width="407" height="407" viewBox="0 0 407 407"><path fill="#D0D0D0" d="M344.5 73.7A335.8 335.8 0 0 0 261.7 48c-.5 0-1 .2-1.3.7-3.6 6.3-7.6 14.6-10.3 21.1a310 310 0 0 0-93 0 214 214 0 0 0-10.6-21.1c-.2-.5-.8-.8-1.3-.7a334.9 334.9 0 0 0-83.4 26.2C9 152.9-5.4 229.8 1.7 305.7c0 .3.2.7.5 1a336 336 0 0 0 101.6 51.2c.6.2 1.1 0 1.5-.4a241 241 0 0 0 20.8-33.8c.3-.7 0-1.5-.7-1.8a220.7 220.7 0 0 1-31.8-15.1c-.8-.5-.9-1.6-.1-2.2l6.3-5c.4-.2.9-.3 1.3-.1a240.8 240.8 0 0 0 204.5 0c.5-.2 1-.2 1.4.2l6.3 5c.7.5.7 1.6-.1 2-10.2 6-20.7 11-31.8 15.2-.7.2-1 1-.7 1.8 6.1 11.8 13.1 23 20.8 33.8.3.4.9.6 1.4.4 33.3-10.2 67-25.7 101.8-51.3.3-.2.5-.6.5-1a340.8 340.8 0 0 0-60.7-231.9M136 259.5c-20 0-36.6-18.4-36.6-41s16.2-41 36.6-41c20.5 0 36.9 18.5 36.6 41 0 22.6-16.2 41-36.6 41m135.2 0c-20 0-36.5-18.4-36.5-41s16.2-41 36.5-41c20.6 0 37 18.5 36.6 41 0 22.6-16 41-36.6 41"/></svg>
